X:1
T:Sunlight All the Way
T:Charles Hutchinson Gabriel
T:Sunlight All the Way
T:Public Domain
T:Public Domain
T:Public Domain
C:Charles Hutchinson Gabriel
Z:Public Domain
%%score ( 1 2 ) ( 3 4 )
L:1/8
M:4/4
K:G
V:1 treble 
V:2 treble 
V:3 bass 
V:4 bass 
V:1
 DD | [DG][DG][DG][DG] [DG][DF][DG][FA] | [GB][GB][GB][GB] [GB]2 [GB][Gc] | %3
w: 1.~As we|earth- ly jour- ney, There’s a path of|joy and love, Where the Sav- ior|
w: 2.~Oft we|on dis- cour- aged, O- ver many a|wear- y mile, Just be- cause we|
w: 3.~Tho’ the|sin and fol- ly May the care- less|feet al- lure, Yet their plea- sures|
w: 4.~When this|earth is end- ed, And be- fore our|rap- tured sight, There shall dawn the|
 [Gd][Gd][Gd][G^c] [Gd]2 G2 | [Fc]2 [GB]2 [FA]2 DD | [DG][DG][DG][DG] [DG][DF][DG][FA] | %6
w: sheds His smile from day to|And the ones who ful-|Him, Tho’ the clouds hang dark a- bove,|
w: fail to catch love’s beam- ing|When we might have Christ|ter Our com- pan- ion all the while,|
w: soon are spent and pass a-|But the saved have joys|ing That for- ev- er- more en- dure|
w: gleam of Heav’n’s e- ter- nal|Thro’ that fair and ho-|ty, Where there comes no shade of night,|
 [GB][GB][GB][GB] [GB]2 [GB][Gc] | [Gd][GB][Gc][Ge] [Gd]2 G2 | [GB]2 [DA]2 [DG]2 || %9
w: Will be walk- ing in the sun-|light all the way. * *||
w: And be walk- ing in the sun-|light all the way. In the|light, in the|
w: And are walk- ing in the sun-|light all the way. * *||
w: We’ll be walk- ing in the sun-|light all the way. * *||
"^Refrain" [Gd][Gd] | (FFF[DF]) [DF]2 FF | (GGGG) [GB]2 [Gd][Gd] | %12
w: |||
w: sun- light!|If * * * we walk in|liev- * * * ing ev- ery|
w: |||
w: |||
 [Fd][FA][FA][FA] [^E^G][FA][=GB][Ac] | (G2 GG G2) [GB][GB] | (^GGAB) (=GE)[DA][GA] | %15
w: |||
w: In the sun- light, in the sun- light!|We’ll * * * be walk-|in * * * the * sun- light|
w: |||
w: |||
 (FFGA) [Gd]2 [GB][Gc] | [Gd][GB][Gc][Ge] [Gd]2 G2 | [GB]2 [DA]2 [DG]2 |] %18
w: |||
w: way. * * * * * *|||
w: |||
w: |||
V:2
 DD | x8 | x8 | x6 G2 | x6 DD | x8 | x8 | x6 G2 | x6 || x2 | d4 x e2 x | d4 x4 | x8 | B6 x2 | %14
w: take our|||day;|ly trust||||||||||
w: jour- ney|||ray,|the Mas-|||sun-|||faith be-|day;||ing|
w: light of|||way|a- bound-||||||||||
w: life on|||day;|ly ci-||||||||||
 e4 e2 x2 | d4 x4 | x6 G2 | x6 |] %18
w: ||||
w: all the||||
w: ||||
w: ||||
V:3
 [G,B,][G,B,] | [G,B,][G,B,][G,B,][G,B,] [G,,B,][A,,C][B,,D][D,D] | %2
w: ~ ~|~ ~ ~ ~ ~ ~ ~ ~|
 [G,D][G,D][G,D][G,D] [G,D]2 [G,D][G,A,] | [G,B,][G,B,][G,B,][G,^A,] [G,B,]2 [B,D]2 | %4
w: ~ ~ ~ ~ ~ ~ ~|~ ~ ~ ~ ~ ~|
 [A,D]2 [G,D]2 [D,D]2 [D,C][F,C] | [G,B,][G,B,][G,B,][G,B,] [G,,B,][A,,C][B,,D][D,D] | %6
w: ~ ~ ~ ~ ~|~ ~ ~ ~ ~ ~ ~ ~|
 [G,D][G,D][G,D][G,D] [G,D]2 [G,D][G,A,] | [G,B,][=F,D][E,C][C,C] [G,B,]2 [E,^C]2 | %8
w: ~ ~ ~ ~ ~ ~ ~|~ ~ ~ ~ ~ ~|
 [D,D]2 [D,C]2 [G,,B,]2 || [G,B,][G,B,] | [D,A,][D,A,][D,A,][D,A,] [D,C]2 [D,C][D,C] | %11
w: ~ ~ ~|In the|sun- light of His love, show- ered|
 [G,B,][G,B,][G,B,][G,B,] [G,D]2 [G,B,][G,B,] | [D,A,][D,D][D,D][D,D] [D,D][D,D][D,D][D,D] | %13
w: on us from a- bove, ~ ~|~ ~ ~ ~ ~ ~ ~ ~|
 [G,D]2 [D,G,D][B,,G,D] [G,,G,D]2 [G,D][=F,D] | [E,B,][E,B,][F,B,][^G,D] (A,=G,)[F,D][E,A,] | %15
w: ~ ev- ery day; In the|sun- light of His love, * show- ered|
 [D,A,][D,A,][E,A,][F,C] [G,B,]2 [G,D][G,A,] | [G,B,][=F,D][E,C][C,C] [G,B,]2 [E,^C]2 | %17
w: us from a- bove. * * *||
 [D,D]2 [D,C]2 [G,,B,]2 |] %18
w: |
V:4
 x2 | x8 | x8 | x8 | x8 | x8 | x8 | x8 | x6 || x2 | x8 | x8 | x8 | x8 | x4 ^C2 x2 | x8 | x8 | x6 |] %18
w: ||||||||||||||on||||

